icons/alchemy-dark.svg

<svg width="256" height="256" viewBox="0 0 256 256" fill="none" xmlns="http://www.w3.org/2000/svg">
<path d="M196 0H60C26.8629 0 0 26.8629 0 60V196C0 229.137 26.8629 256 60 256H196C229.137 256 256 229.137 256 196V60C256 26.8629 229.137 0 196 0Z" fill="#282828"/>
<path d="M192.56 151.288L131.487 47.6955C131.191 47.184 130.763 46.7579 130.245 46.4602C129.728 46.1625 129.139 46.0038 128.539 46.0001C127.939 45.9963 127.348 46.1477 126.827 46.4388C126.305 46.73 125.872 47.1507 125.57 47.6585L107.278 78.6994C106.68 79.7153 106.364 80.8681 106.364 82.0413C106.364 83.2145 106.68 84.3673 107.278 85.3832L147.102 152.964C147.702 153.981 148.565 154.826 149.604 155.412C150.642 155.999 151.821 156.307 153.02 156.306H189.601C190.2 156.304 190.788 156.149 191.307 155.855C191.825 155.561 192.255 155.138 192.554 154.631C192.854 154.123 193.012 153.547 193.013 152.96C193.014 152.374 192.858 151.797 192.56 151.288Z" fill="#363FF9"/>
<path d="M32.4709 205.43L93.5443 101.837C93.8439 101.329 94.2749 100.908 94.7935 100.615C95.3117 100.322 95.8997 100.168 96.4983 100.168C97.0968 100.168 97.6851 100.322 98.2034 100.615C98.722 100.908 99.1526 101.329 99.4522 101.837L117.753 132.85C118.352 133.868 118.667 135.022 118.667 136.196C118.667 137.371 118.352 138.526 117.753 139.543L77.9286 207.124C77.3313 208.141 76.4704 208.986 75.4332 209.572C74.396 210.159 73.2188 210.467 72.0207 210.466H35.4296C34.8268 210.469 34.234 210.316 33.7115 210.021C33.1889 209.727 32.7553 209.302 32.4547 208.791C32.1541 208.279 31.9972 207.698 32 207.108C32.0029 206.518 32.1654 205.939 32.4709 205.43Z" fill="#363FF9"/>
<path d="M99.4441 210.444H221.591C222.19 210.443 222.779 210.288 223.297 209.994C223.816 209.7 224.246 209.278 224.545 208.769C224.844 208.261 225.001 207.684 225 207.097C224.999 206.51 224.841 205.934 224.54 205.426L206.268 174.395C205.669 173.378 204.806 172.533 203.767 171.946C202.728 171.36 201.55 171.051 200.351 171.052H120.703C119.504 171.051 118.326 171.36 117.287 171.946C116.248 172.533 115.385 173.378 114.786 174.395L96.4951 205.426C96.1945 205.934 96.0358 206.51 96.0352 207.097C96.0342 207.684 96.1908 208.261 96.4898 208.769C96.7887 209.278 97.2193 209.7 97.7379 209.994C98.2566 210.288 98.8448 210.443 99.4441 210.444Z" fill="#363FF9"/>
</svg>

<svg xmlns="http://www.w3.org/2000/svg" width="256" height="256" fill="none"><path fill="#282828" d="M196 0H60C26.863 0 0 26.863 0 60v136c0 33.137 26.863 60 60 60h136c33.137 0 60-26.863 60-60V60c0-33.137-26.863-60-60-60"/><path fill="#363FF9" d="M192.56 151.288 131.487 47.696a3.4 3.4 0 0 0-1.242-1.236 3.47 3.47 0 0 0-3.418-.021 3.37 3.37 0 0 0-1.257 1.22l-18.292 31.04a6.6 6.6 0 0 0-.914 3.342c0 1.174.316 2.326.914 3.342l39.824 67.581a6.76 6.76 0 0 0 2.502 2.448 6.93 6.93 0 0 0 3.416.894h36.581a3.5 3.5 0 0 0 1.706-.451 3.4 3.4 0 0 0 1.247-1.224 3.3 3.3 0 0 0 .006-3.343M32.47 205.43l61.074-103.593c.3-.508.73-.929 1.25-1.222a3.47 3.47 0 0 1 3.41 0c.518.293.949.714 1.248 1.222l18.301 31.013a6.6 6.6 0 0 1 .914 3.346c0 1.175-.315 2.33-.914 3.347l-39.824 67.581a6.73 6.73 0 0 1-2.496 2.448 6.9 6.9 0 0 1-3.412.894H35.43a3.46 3.46 0 0 1-1.718-.445 3.4 3.4 0 0 1-1.257-1.23 3.29 3.29 0 0 1 .016-3.361m66.973 5.014h122.147a3.47 3.47 0 0 0 1.706-.45 3.4 3.4 0 0 0 1.248-1.225 3.29 3.29 0 0 0-.005-3.343l-18.272-31.031a6.76 6.76 0 0 0-2.501-2.449 6.95 6.95 0 0 0-3.416-.894h-79.648a6.95 6.95 0 0 0-3.416.894 6.76 6.76 0 0 0-2.501 2.449l-18.29 31.031a3.29 3.29 0 0 0-.006 3.343c.299.509.73.931 1.248 1.225a3.5 3.5 0 0 0 1.706.45"/></svg>
